X:89
T:Miss Johnson’s Reel. RH.089
R:Reel
S:Rev.R.Harrison’s MS,c1815,Cumbria
O:England
A:Temple Sowerby,Cumbria
Z:vmp.Simon Wilson. Review PJH, 2008.
M:C
L:1/8
Q:2/4=90
K:G
|:Bcde dBBe|dBgB bBgd|Bcde dBBd|cAag fedc:|!
BABd G2BA|GBDB GBDc|\
BABd G2BG|FGAB cAdc|!
BABd G2BA|GBDB GBD B/c/|dBcA BGAF|DEFG ABcA|]

